src/pos-icons/qrcode.svg

<svg height="24" viewBox="0 0 24 24" width="24" xmlns="http://www.w3.org/2000/svg"><path d="m3 11h2v2h-2zm8-6h2v4h-2zm-2 6h4v4h-2v-2h-2zm6 0h2v2h2v-2h2v2h-2v2h2v4h-2v2h-2v-2h-4v2h-2v-4h4v-2h2v-2h-2zm4 8v-4h-2v4zm-4-16h6v6h-6zm2 2v2h2v-2zm-14-2h6v6h-6zm2 2v2h2v-2zm-2 10h6v6h-6zm2 2v2h2v-2z"/></svg>

<?xml version="1.0" encoding="UTF-8"?><!DOCTYPE svg PUBLIC "-//W3C//DTD SVG 1.1//EN" "http://www.w3.org/Graphics/SVG/1.1/DTD/svg11.dtd"><svg xmlns="http://www.w3.org/2000/svg" xmlns:xlink="http://www.w3.org/1999/xlink" version="1.1" id="mdi-qrcode" width="24" height="24" viewBox="0 0 24 24"><path d="M3,11H5V13H3V11M11,5H13V9H11V5M9,11H13V15H11V13H9V11M15,11H17V13H19V11H21V13H19V15H21V19H19V21H17V19H13V21H11V17H15V15H17V13H15V11M19,19V15H17V19H19M15,3H21V9H15V3M17,5V7H19V5H17M3,3H9V9H3V3M5,5V7H7V5H5M3,15H9V21H3V15M5,17V19H7V17H5Z" /></svg>
